assets/icons/minio.svg

<svg role="img" fill="currentColor" viewBox="0 0 24 24" xmlns="http://www.w3.org/2000/svg">
    <title>MINIO</title>
    <path
        d="M2.36532 10.1188C2.9461 10.2738 3.46723 10.5842 3.97976 10.89C4.32458 11.0921 4.69668 11.3046 5.111 11.2273C5.32859 11.159 5.52584 11.0497 5.72567 10.9413C5.77278 10.9162 5.81989 10.8912 5.86845 10.8654C6.22142 10.6756 6.56253 10.4708 6.8983 10.2523C7.10933 10.1205 7.26031 10.1013 7.50692 10.1181C7.75189 10.2224 7.75189 10.2224 7.83505 10.3056C7.83945 10.3933 7.84053 10.4812 7.84039 10.569C7.84034 10.6535 7.84034 10.6535 7.84034 10.7397C7.84011 10.8009 7.83988 10.8622 7.83964 10.9254C7.83955 10.9883 7.83945 11.0513 7.83941 11.1143C7.83927 11.2804 7.8388 11.4465 7.83828 11.6125C7.83777 11.7819 7.83758 11.9512 7.83734 12.1206C7.83683 12.4531 7.83598 12.7856 7.83505 13.1181C7.43286 13.1181 7.03067 13.1181 6.6163 13.1181C6.60083 12.6849 6.58536 12.2518 6.56942 11.8056C6.24256 11.9862 6.24256 11.9862 5.91598 12.1673C5.87483 12.19 5.83362 12.2126 5.7912 12.2359C5.74948 12.2589 5.70777 12.282 5.66478 12.3058C5.28955 12.4904 4.88742 12.5297 4.47854 12.4329C4.35787 12.3872 4.24645 12.3339 4.13192 12.2743C4.10352 12.2597 4.07512 12.2452 4.04586 12.2302C3.51448 11.9565 3.51448 11.9565 3.28817 11.8056C3.2727 12.2387 3.25723 12.6718 3.2413 13.1181C2.83911 13.1181 2.43692 13.1181 2.02255 13.1181C2.01861 12.7618 2.01485 12.4057 2.01284 12.0494C2.01185 11.8835 2.01053 11.7176 2.0084 11.5517C2.00597 11.3612 2.00506 11.1708 2.00424 10.9803C2.00278 10.8914 2.00278 10.8914 2.0013 10.8007C2.00129 10.7453 2.00127 10.6899 2.00126 10.6329C2.00084 10.5843 2.00043 10.5357 2 10.4856C2.03858 10.2577 2.12733 10.1177 2.36532 10.1188Z" />
    <path
        d="M10.9934 10.0953C11.68 10.1874 12.3274 10.5923 12.9386 10.8974C13.0874 10.9714 13.2362 11.0453 13.3852 11.119C13.4773 11.1645 13.5692 11.2103 13.661 11.2563C13.724 11.2875 13.724 11.2875 13.7882 11.3193C13.8426 11.3466 13.8426 11.3466 13.8982 11.3743C14.0612 11.448 14.23 11.5084 14.3975 11.5712C14.3975 11.0917 14.3975 10.6121 14.3975 10.1181C14.7997 10.1181 15.2019 10.1181 15.6163 10.1181C15.6163 11.0771 15.6163 12.0362 15.6163 13.0243C15.3676 13.1486 14.9872 13.1196 14.7225 13.0432C14.4846 12.9545 14.26 12.8382 14.0343 12.7225C13.9639 12.6878 13.8935 12.6532 13.823 12.6188C13.6852 12.5513 13.5479 12.4831 13.4109 12.4141C13.1786 12.2973 12.9447 12.1842 12.71 12.0722C12.6777 12.0562 12.6453 12.0401 12.6119 12.0237C12.3635 11.9034 12.14 11.8408 11.8663 11.7587C11.8663 12.2073 11.8663 12.6559 11.8663 13.1181C11.4796 13.1181 11.0929 13.1181 10.6944 13.1181C10.6595 12.9433 10.6411 12.8078 10.6392 12.6335C10.6386 12.5847 10.638 12.5359 10.6374 12.4856C10.6371 12.4333 10.6367 12.381 10.6364 12.3272C10.636 12.2731 10.6356 12.219 10.6352 12.1632C10.6346 12.0488 10.6341 11.9344 10.6337 11.82C10.6329 11.6452 10.6309 11.4705 10.6288 11.2957C10.6283 11.1845 10.6279 11.0732 10.6276 10.962C10.6268 10.9098 10.6259 10.8577 10.6251 10.8039C10.6262 10.3986 10.6262 10.3986 10.722 10.2235C10.835 10.1181 10.835 10.1181 10.9934 10.0953Z" />
    <path
        d="M22.085 10.5868C22.384 10.8521 22.5714 11.183 22.6113 11.5844C22.5932 11.9687 22.3802 12.3619 22.1261 12.6435C21.443 13.2551 20.498 13.3072 19.6308 13.2667C19.0261 13.2275 18.3688 12.9776 17.9249 12.5526C17.8725 12.4925 17.8215 12.4311 17.7725 12.3681C17.7515 12.3438 17.7305 12.3196 17.7088 12.2947C17.5159 12.031 17.5526 11.6933 17.585 11.3837C17.6658 10.9744 17.9098 10.7311 18.2413 10.4931C19.3336 9.82692 21.0257 9.81426 22.085 10.5868ZM18.3468 11.0175C18.1596 11.2515 18.1646 11.5149 18.1944 11.8056C18.2841 12.139 18.5312 12.3592 18.8038 12.5556C19.3993 12.8857 20.1519 12.8761 20.8018 12.7138C21.1855 12.6032 21.6441 12.455 21.8507 12.0868C21.9589 11.8 21.9939 11.5353 21.8975 11.2401C21.5714 10.7612 21.0605 10.5363 20.5079 10.4229C19.7428 10.308 18.9247 10.474 18.3468 11.0175Z" />
    <path
        d="M8.63192 10.1181C9.03411 10.1181 9.4363 10.1181 9.85067 10.1181C9.85067 11.1081 9.85067 12.0981 9.85067 13.1181C9.44848 13.1181 9.0463 13.1181 8.63192 13.1181C8.63192 12.1281 8.63192 11.1381 8.63192 10.1181Z" />
    <path
        d="M16.4132 10.1181C16.6143 10.1181 16.8154 10.1181 17.0225 10.1181C17.0225 11.1081 17.0225 12.0981 17.0225 13.1181C16.8215 13.1181 16.6204 13.1181 16.4132 13.1181C16.4132 12.1281 16.4132 11.1381 16.4132 10.1181Z" />
</svg>

<svg fill="currentColor" viewBox="0 0 24 24" xmlns="http://www.w3.org/2000/svg"><path d="M2.365 10.119c.581.155 1.102.465 1.615.771.345.202.717.415 1.131.337.218-.068.415-.177.615-.286l.142-.076c.353-.19.695-.394 1.03-.613.211-.132.362-.15.609-.134.245.104.245.104.328.188.004.087.006.175.005.263v.546l-.002.498v.508l-.003.997H6.616c-.015-.433-.03-.866-.047-1.312l-.653.361-.125.069-.126.07a1.727 1.727 0 01-1.186.127 3.19 3.19 0 01-.347-.159l-.086-.044c-.532-.274-.532-.274-.758-.424-.015.433-.03.866-.047 1.312H2.023a197.282 197.282 0 01-.015-1.566l-.004-.572-.003-.18v-.167L2 10.486c.039-.228.127-.368.365-.367zM10.993 10.095c.687.092 1.334.497 1.946.802a231.67 231.67 0 00.722.36l.127.062.11.055c.163.074.332.134.5.197v-1.453h1.218v2.906c-.248.125-.629.096-.893.02-.238-.09-.463-.206-.689-.322l-.211-.103a41.533 41.533 0 01-.412-.205c-.232-.117-.466-.23-.701-.342l-.098-.048c-.248-.12-.472-.183-.746-.265v1.36h-1.172a2.429 2.429 0 01-.055-.486l-.002-.147v-.159a720.757 720.757 0 01-.01-1.365l-.002-.158c.001-.405.001-.405.097-.58.113-.106.113-.106.271-.129zM22.085 10.587c.299.265.486.596.526.997-.018.385-.23.778-.485 1.06-.683.611-1.628.663-2.495.623-.605-.04-1.262-.29-1.706-.714a4.273 4.273 0 01-.152-.185 23.25 23.25 0 00-.064-.073c-.193-.264-.156-.602-.124-.911.08-.41.325-.653.656-.89 1.093-.667 2.785-.68 3.844.093zm-3.738.43c-.187.235-.182.498-.153.789.09.333.337.553.61.75.595.33 1.348.32 1.998.158.384-.11.842-.259 1.049-.627.108-.287.143-.552.047-.847-.327-.479-.837-.704-1.39-.817-.765-.115-1.583.051-2.161.595zM8.632 10.118H9.85v3H8.63v-3zM16.413 10.118h.61v3h-.61v-3z"/></svg>
